src/lib/packages/icons/src/assets/line/file-text-ban.svg

<svg xmlns="http://www.w3.org/2000/svg" width="24" height="24" fill="none"><path fill="currentColor" d="M12 20.25H6c-1.577 0-2.25-.673-2.25-2.25V6c0-1.577.673-2.25 2.25-2.25h5.25V6c0 2.418 1.332 3.75 3.75 3.75h2.25V12a.75.75 0 0 0 1.5 0V9a.747.747 0 0 0-.22-.53l-6-6a.749.749 0 0 0-.53-.22H6C3.582 2.25 2.25 3.582 2.25 6v12c0 2.418 1.332 3.75 3.75 3.75h6a.75.75 0 0 0 0-1.5ZM12.75 6V4.811l3.439 3.439H15c-1.577 0-2.25-.673-2.25-2.25Zm5.75 8.25a4.254 4.254 0 0 0-4.25 4.25 4.254 4.254 0 0 0 4.25 4.25 4.254 4.254 0 0 0 4.25-4.25 4.254 4.254 0 0 0-4.25-4.25Zm0 1.5c.485 0 .935.137 1.331.358l-3.722 3.723a2.722 2.722 0 0 1-.359-1.331 2.753 2.753 0 0 1 2.75-2.75Zm0 5.5a2.72 2.72 0 0 1-1.331-.358l3.722-3.723c.221.396.359.846.359 1.331a2.753 2.753 0 0 1-2.75 2.75Zm-4.5-8.5H7a.75.75 0 0 1 0-1.5h7a.75.75 0 0 1 0 1.5Zm-7 4a.75.75 0 0 1 0-1.5h4a.75.75 0 0 1 0 1.5H7Z"/></svg>

<svg width="24" height="24" viewBox="0 0 24 24" fill="none" xmlns="http://www.w3.org/2000/svg">
<path d="M12 20.25H6C4.423 20.25 3.75 19.577 3.75 18V6C3.75 4.423 4.423 3.75 6 3.75H11.25V6C11.25 8.418 12.582 9.75 15 9.75H17.25V12C17.25 12.414 17.586 12.75 18 12.75C18.414 12.75 18.75 12.414 18.75 12V9C18.75 8.801 18.671 8.61 18.53 8.47L12.53 2.47C12.389 2.329 12.199 2.25 12 2.25H6C3.582 2.25 2.25 3.582 2.25 6V18C2.25 20.418 3.582 21.75 6 21.75H12C12.414 21.75 12.75 21.414 12.75 21C12.75 20.586 12.414 20.25 12 20.25ZM12.75 6V4.811L16.189 8.25H15C13.423 8.25 12.75 7.577 12.75 6ZM18.5 14.25C16.156 14.25 14.25 16.156 14.25 18.5C14.25 20.844 16.156 22.75 18.5 22.75C20.844 22.75 22.75 20.844 22.75 18.5C22.75 16.156 20.844 14.25 18.5 14.25ZM18.5 15.75C18.985 15.75 19.4351 15.887 19.8311 16.108L16.1089 19.831C15.8879 19.435 15.75 18.985 15.75 18.5C15.75 16.984 16.983 15.75 18.5 15.75ZM18.5 21.25C18.015 21.25 17.5649 21.113 17.1689 20.892L20.8911 17.169C21.1121 17.565 21.25 18.015 21.25 18.5C21.25 20.016 20.017 21.25 18.5 21.25ZM14 12.75H7C6.586 12.75 6.25 12.414 6.25 12C6.25 11.586 6.586 11.25 7 11.25H14C14.414 11.25 14.75 11.586 14.75 12C14.75 12.414 14.414 12.75 14 12.75ZM7 16.75C6.586 16.75 6.25 16.414 6.25 16C6.25 15.586 6.586 15.25 7 15.25H11C11.414 15.25 11.75 15.586 11.75 16C11.75 16.414 11.414 16.75 11 16.75H7Z" fill="currentColor"/>
</svg>
